communes/3941.svg

<?xml version="1.0" encoding="UTF-8"?>
<!DOCTYPE svg  PUBLIC '-//W3C//DTD SVG 1.1//EN'  'http://www.w3.org/Graphics/SVG/1.1/DTD/svg11.dtd'>
<svg width="438" height="480" viewBox="21 15 438 480" xmlns="http://www.w3.org/2000/svg">
<metadata>
<rdf:RDF xmlns:dc="http://purl.org/dc/elements/1.1/" xmlns:rdf="http://www.w3.org/1999/02/22-rdf-syntax-ns#">
<rdf:Description dc:date="2006-10-28" dc:format="image/svg+xml" dc:language="de" dc:title="Wappen Haldenstein (CH-GR)">
<dc:creator rdf:resource="http://de.wikipedia.org/wiki/Benutzer:Bernina"/>
</rdf:Description>
</rdf:RDF>
</metadata>
<title>Wappen Haldenstein (CH-GR)</title>
<defs>
<clipPath id="a">
<path d="m360 4140a3240 3240 0 0 0 6480 0v-3870h-6480v3870z"/>
</clipPath>
<style type="text/css"><![CDATA[
  .Rand2 { stroke: #202020; stroke-width:30; }
  .Rand6 { stroke: #202020; stroke-width:90; }
  .Schwarz { fill: #000000; }
  .Silber { fill: #ffffff; }
  ]]></style>
</defs>
<g transform="scale(.066667)" fill="none" fill-rule="evenodd" stroke-miterlimit="10" stroke-width="10">
<g clip-path="url(#a)">
<path class="Silber" d="m-225-225v7650h7650v-7650h-7650z"/>
<path class="Schwarz Rand2" d="m1770 3798a510 510 0 0 0 590.13 503.67c19.09 135.02 46.43 263.66 80.13 385.28a540 540 0 0 0-354.26 507.05 540 540 0 0 0 726.81 506.66c49.36 92.1 108.02 190.86 175.91 291.28a480 480 0 0 0-302.72 446.06 480 480 0 0 0 927.58 173.41c30.63 13.07 58.8 22.13 84.86 28.9 4.29 1.12 8.49 2.18 12.6 3.19a540 450-30 0 0 51.31 196.5 540 450-30 0 0 935.3-540 540 450-30 0 0-315.48-199.46c-12.43-34.99-29.28-77.36-52.13-129.36a480 480 0 0 0 605.96-463.18 480 480 0 0 0-928.83-170.16c-72.43-132.85-136.76-249.61-180.11-337.35-85.58-173.22-150.18-340.49-212.06-560.49s-104.76-476.09-112.58-754.16c-7.83-278.07 20.7-542.09 82.58-775.84s169.32-483.42 318.26-716.74c148.94-233.31 319.86-419.51 491.74-543.26s378.67-209.51 591.68-260.5c213.02-50.99 403.94-61.38 548.32-54.5s263.19 34.66 416.4 90.25c153.22 55.6 258.6 104.75 258.6 104.75v-90s-19.24-51.76-54.73-122.84-70.27-122.16-125.27-177.16-136.96-122.61-235.39-188.76c-98.44-66.16-200.23-121.86-289.61-156.24-76.71-29.5-157.28-48.3-243.75-58.29a420 420 0 0 0-795 75.05c-101.33 29.13-205.3 67.79-311.25 118.24-67.69 32.23-142.46 72.27-222.49 120.89a450 450 0 0 0-796.51 287.11 450 450 0 0 0 100.25 283.15c-40.33 43.67-79.17 88.34-116.25 133.85-65.84 80.8-131.78 171.19-196.23 269.76a480 480 0 0 0-793.77 363.24 480 480 0 0 0 379.07 469.27c-45.77 127.09-82.31 250.65-109.07 367.73-5.57 24.38-10.83 48.97-15.78 73.76a510 510 0 0 0-614.22 499.24z"/>
</g>
<path class="Rand6" d="m360 4140a3240 3240 0 0 0 6480 0v-3870h-6480v3870z"/>
</g>
</svg>

<?xml version="1.0" encoding="iso-8859-1"?>
<!DOCTYPE svg PUBLIC "-//W3C//DTD SVG 1.1//EN" "http://www.w3.org/Graphics/SVG/1.1/DTD/svg11.dtd">
<!-- Auto-generated by fig2svg tool
     Date: Sat Oct 28 20:10:12 2006 -->
<svg xmlns="http://www.w3.org/2000/svg"
     width="438" height="480" viewBox="21 15 438 480">
<metadata>
<rdf:RDF xmlns:rdf="http://www.w3.org/1999/02/22-rdf-syntax-ns#"
         xmlns:dc="http://purl.org/dc/elements/1.1/">
<rdf:Description
 dc:title="Wappen Haldenstein (CH-GR)"
 dc:date="2006-10-28"
 dc:format="image/svg+xml"
 dc:language="de">
<dc:creator rdf:resource="http://de.wikipedia.org/wiki/Benutzer:Bernina" />
</rdf:Description>
</rdf:RDF>
</metadata>
<title>
Wappen Haldenstein (CH-GR)
</title>
<defs>
<clipPath id="clippath">
<path d="M360,4140 A3240,3240 0.0 0 0 6840,4140 L6840,270 L360,270 L360,4140 Z" />
</clipPath>
<style type="text/css">
  <![CDATA[
  .Rand2 { stroke: #202020; stroke-width:30; }
  .Rand6 { stroke: #202020; stroke-width:90; }
  .Schwarz { fill: #000000; }
  .Silber { fill: #ffffff; }
  ]]>
</style>
</defs>
<g stroke="none" stroke-miterlimit="10" stroke-width="10"
   stroke-linecap="butt" stroke-linejoin="miter"
   fill="none" fill-rule="evenodd" transform="scale(0.066667)">
<g clip-path="url(#clippath)">
<path id="feld-1" class="Silber"
      d="M-225,-225 L-225,7425 L7425,7425 L7425,-225 L-225,-225 Z" />
<path id="horn-1" class="Schwarz Rand2"
      d="M1770,3798 A510,510 0.0 0 0 2360.13,4301.67
         C2379.22,4436.69 2406.56,4565.33 2440.26,4686.95
         A540,540 0.0 0 0 2086,5194 A540,540 0.0 0 0 2812.81,5700.66
         C2862.17,5792.76 2920.83,5891.52 2988.72,5991.94
         A480,480 0.0 0 0 2686,6438 A480,480 0.0 0 0 3613.58,6611.41
         C3644.21,6624.48 3672.38,6633.54 3698.44,6640.31
         C3702.73,6641.43 3706.93,6642.49 3711.04,6643.50
         A540,450 -30.0 0 0 3762.35,6840.00
         A540,450 -30.0 0 0 4697.65,6300.00
         A540,450 -30.0 0 0 4382.17,6100.54
         C4369.74,6065.55 4352.89,6023.18 4330.04,5971.18
         A480,480 0.0 0 0 4936,5508 A480,480 0.0 0 0 4007.17,5337.84
         C3934.74,5204.99 3870.41,5088.23 3827.06,5000.49
         C3741.48,4827.27 3676.88,4660 3615,4440
         C3553.12,4220 3510.24,3963.91 3502.42,3685.84
         C3494.59,3407.77 3523.12,3143.75 3585,2910
         C3646.88,2676.25 3754.32,2426.58 3903.26,2193.26
         C4052.20,1959.95 4223.12,1773.75 4395,1650
         C4566.88,1526.25 4773.67,1440.49 4986.68,1389.50
         C5199.70,1338.51 5390.62,1328.12 5535,1335
         C5679.38,1341.88 5798.19,1369.66 5951.40,1425.25
         C6104.62,1480.85 6210,1530 6210,1530 L6210,1440
         C6210,1440 6190.76,1388.24 6155.27,1317.16
         C6119.78,1246.08 6085,1195 6030,1140
         C5975,1085 5893.04,1017.39 5794.61,951.24
         C5696.17,885.08 5594.38,829.38 5505,795
         C5428.29,765.50 5347.72,746.70 5261.25,736.71
         A420,420 0.0 0 0 4466.25,811.76
         C4364.92,840.89 4260.95,879.55 4155,930
         C4087.31,962.23 4012.54,1002.27 3932.51,1050.89
         A450,450 0.0 0 0 3136,1338 A450,450 0.0 0 0 3236.25,1621.15
         C3195.92,1664.82 3157.08,1709.49 3120,1755
         C3054.16,1835.80 2988.22,1926.19 2923.77,2024.76
         A480,480 0.0 0 0 2130,2388 A480,480 0.0 0 0 2509.07,2857.27
         C2463.30,2984.36 2426.76,3107.92 2400,3225
         C2394.43,3249.38 2389.17,3273.97 2384.22,3298.76 A510,510 0.0 0 0 1770,3798 Z" />
</g>
<path id="clip-boundary" class="Rand6"
      d="M360,4140 A3240,3240 0.0 0 0 6840,4140 L6840,270 L360,270 L360,4140 Z" />
</g>
</svg>
